public/img/step-2.svg

<svg width="64" height="64" viewBox="0 0 64 64" fill="none" xmlns="http://www.w3.org/2000/svg">
<g clip-path="url(#clip0)">
<path d="M32.7439 13.0613C28.377 17.4282 28.377 24.5337 32.7439 28.9005C34.9276 31.0842 37.7951 32.1756 40.6636 32.1756C43.5313 32.1756 46.4001 31.0836 48.5833 28.9005C52.9501 24.5337 52.9501 17.4282 48.5833 13.0613C44.2163 8.69445 37.1108 8.69445 32.7439 13.0613ZM47.4342 27.7518C43.7009 31.4851 37.6261 31.4851 33.8928 27.7518C30.1595 24.0184 30.1595 17.9437 33.8928 14.2104C35.7595 12.3437 38.2115 11.4103 40.6634 11.4103C43.1153 11.4103 45.5674 12.3436 47.4341 14.2104C51.1677 17.9437 51.1677 24.0183 47.4342 27.7518Z" fill="#2474B7"/>
<path d="M33.3815 23.3082C33.8211 23.2183 34.1046 22.789 34.0146 22.3494C33.9232 21.9023 33.8768 21.4419 33.8768 20.9808C33.8768 20.5321 33.5131 20.1684 33.0644 20.1684C32.6156 20.1684 32.252 20.5321 32.252 20.9808C32.252 21.5509 32.3094 22.1209 32.4229 22.675C32.5016 23.0596 32.84 23.3248 33.2179 23.3248C33.2718 23.3249 33.3266 23.3194 33.3815 23.3082Z" fill="#2474B7"/>
<path d="M40.6623 27.767C38.1956 27.767 35.9196 26.4253 34.7224 24.2653C34.5048 23.8728 34.0104 23.7311 33.618 23.9486C33.2255 24.1661 33.0837 24.6605 33.3013 25.053C34.7846 27.7293 37.6052 29.3918 40.6623 29.3918C41.111 29.3918 41.4747 29.0282 41.4747 28.5794C41.4747 28.1306 41.1109 27.767 40.6623 27.767Z" fill="#2474B7"/>
<path d="M47.3116 19.6124C47.403 20.0595 47.4494 20.52 47.4494 20.981C47.4494 21.4297 47.8131 21.7934 48.2618 21.7934C48.7106 21.7934 49.0742 21.4297 49.0742 20.981C49.0742 20.4109 49.0168 19.8409 48.9033 19.2868C48.8134 18.8472 48.3846 18.5638 47.9445 18.6537C47.5051 18.7437 47.2216 19.173 47.3116 19.6124Z" fill="#2474B7"/>
<path d="M39.8496 13.3827C39.8496 13.8315 40.2133 14.1952 40.662 14.1952C43.0504 14.1952 45.219 15.4148 46.4629 17.4577C46.616 17.709 46.8835 17.8478 47.1576 17.8478C47.3017 17.8478 47.4473 17.8096 47.5794 17.7292C47.9625 17.4958 48.0841 16.9961 47.8507 16.6128C46.3096 14.0816 43.6222 12.5703 40.662 12.5703C40.2133 12.5703 39.8496 12.934 39.8496 13.3827Z" fill="#2474B7"/>
<path d="M61.7095 38.2527L52.4499 28.9931C56.2219 23.4483 55.655 15.8142 50.7423 10.9016C50.0692 10.2284 49.3404 9.6308 48.5667 9.11306V0.812426C48.5667 0.363672 48.203 0 47.7542 0H2.32024C1.87148 0 1.50781 0.363672 1.50781 0.812426V63.1876C1.50781 63.6363 1.87148 64 2.32024 64H47.7541C48.2028 64 48.5665 63.6363 48.5665 63.1876V32.8488C48.6042 32.8235 48.6413 32.7972 48.6788 32.7717L57.9347 42.0276C58.4551 42.548 59.1384 42.8081 59.822 42.8081C60.5055 42.8081 61.1891 42.5478 61.7094 42.0276C62.2135 41.5234 62.4911 40.8531 62.4911 40.1401C62.4911 39.4271 62.2137 38.7569 61.7095 38.2527ZM49.5933 29.9115C47.2078 32.2969 44.0363 33.6105 40.6628 33.6105C37.2893 33.6105 34.1177 32.2968 31.7323 29.9115C29.3469 27.526 28.0332 24.3545 28.0332 20.981C28.0332 17.6075 29.347 14.4359 31.7323 12.0505C34.1177 9.66507 37.2893 8.35145 40.6628 8.35145C44.0363 8.35145 47.2078 9.66522 49.5933 12.0505C54.5176 16.9748 54.5176 24.9871 49.5933 29.9115ZM46.9417 62.3751H3.13267V1.62485H46.9417V8.17685C45.0119 7.22853 42.8761 6.7266 40.6629 6.7266C39.1028 6.7266 37.581 6.97594 36.1426 7.45512H33.612C33.1632 7.45512 32.7995 7.81879 32.7995 8.26755C32.7995 8.52043 32.915 8.74629 33.0963 8.89518C32.1966 9.46093 31.3536 10.1315 30.5835 10.9016C30.3277 11.1574 30.0829 11.4212 29.8492 11.6926C29.8754 11.6128 29.8902 11.5277 29.8902 11.4391C29.8902 10.9904 29.5265 10.6267 29.0777 10.6267H20.3438C19.8951 10.6267 19.5314 10.9904 19.5314 11.4391C19.5314 11.8879 19.8951 12.2515 20.3438 12.2515H29.0777C29.2215 12.2515 29.3563 12.2139 29.4735 12.1483C29.0566 12.6741 28.6801 13.2253 28.3449 13.798H20.3443C19.8955 13.798 19.5319 14.1616 19.5319 14.6104C19.5319 15.0591 19.8955 15.4228 20.3443 15.4228H27.5294C27.3161 15.9267 27.1323 16.4429 26.9789 16.9694H20.3443C19.8955 16.9694 19.5319 17.333 19.5319 17.7818C19.5319 18.2306 19.8955 18.5942 20.3443 18.5942H26.6069C26.5215 19.1032 26.4638 19.6194 26.4336 20.1408H20.3443C19.8955 20.1408 19.5319 20.5045 19.5319 20.9532C19.5319 21.402 19.8955 21.7656 20.3443 21.7656H26.4303C26.4583 22.2871 26.5146 22.803 26.5979 23.3122H20.3441C19.8954 23.3122 19.5317 23.6759 19.5317 24.1246C19.5317 24.5734 19.8954 24.9371 20.3441 24.9371H26.9626C27.1137 25.4634 27.2947 25.9796 27.5055 26.4836H20.3441C19.8954 26.4836 19.5317 26.8473 19.5317 27.2961C19.5317 27.7448 19.8954 28.1085 20.3441 28.1085H28.3123C28.6365 28.6682 28.9994 29.2078 29.4014 29.7233C29.3021 29.68 29.1926 29.6558 29.0776 29.6558H20.3437C19.8949 29.6558 19.5313 30.0195 19.5313 30.4682C19.5313 30.917 19.8949 31.2806 20.3437 31.2806H29.0776C29.5263 31.2806 29.89 30.917 29.89 30.4682C29.89 30.4085 29.8832 30.3506 29.871 30.2946C30.0981 30.557 30.3355 30.8125 30.5834 31.0604C31.3434 31.8204 32.174 32.4838 33.0605 33.0448C32.9003 33.1932 32.7994 33.4048 32.7994 33.6404C32.7994 34.0891 33.1631 34.4528 33.6118 34.4528H35.9851C37.4697 34.9668 39.0455 35.2354 40.6628 35.2354C42.876 35.2354 45.0118 34.7334 46.9415 33.7851V62.3751H46.9417ZM60.5604 40.8786C60.1532 41.2859 59.4908 41.2859 59.0836 40.8786L49.9772 31.7722C50.2394 31.5453 50.4946 31.3081 50.7422 31.0604C50.9908 30.8118 51.2243 30.5539 51.4506 30.292L60.5604 39.4016C60.7576 39.5989 60.8664 39.8612 60.8664 40.1401C60.8664 40.419 60.7578 40.6813 60.5604 40.8786Z" fill="#2474B7"/>
<path d="M15.8082 4.28369H7.07414C6.62539 4.28369 6.26172 4.64736 6.26172 5.09612V17.7821C6.26172 18.2309 6.62539 18.5945 7.07414 18.5945H15.808C16.2568 18.5945 16.6204 18.2309 16.6204 17.7821V5.09612C16.6206 4.64736 16.2568 4.28369 15.8082 4.28369ZM14.9957 16.9697H7.88657V5.90855H14.9956V16.9697H14.9957Z" fill="#2474B7"/>
<path d="M15.8082 20.1412H7.07415C6.62539 20.1412 6.26172 20.5049 6.26172 20.9536C6.26172 21.4024 6.62539 21.7661 7.07415 21.7661H15.808C16.2568 21.7661 16.6204 21.4024 16.6204 20.9536C16.6204 20.5049 16.2568 20.1412 15.8082 20.1412Z" fill="#2474B7"/>
<path d="M15.8082 23.3128H7.07415C6.62539 23.3128 6.26172 23.6765 6.26172 24.1253C6.26172 24.574 6.62539 24.9377 7.07415 24.9377H15.808C16.2568 24.9377 16.6204 24.574 16.6204 24.1253C16.6204 23.6765 16.2568 23.3128 15.8082 23.3128Z" fill="#2474B7"/>
<path d="M15.8082 26.4842H7.07415C6.62539 26.4842 6.26172 26.8479 6.26172 27.2966C6.26172 27.7454 6.62539 28.1091 7.07415 28.1091H15.808C16.2568 28.1091 16.6204 27.7454 16.6204 27.2966C16.6204 26.8479 16.2568 26.4842 15.8082 26.4842Z" fill="#2474B7"/>
<path d="M15.8082 29.6558H7.07415C6.62539 29.6558 6.26172 30.0195 6.26172 30.4682C6.26172 30.917 6.62539 31.2806 7.07415 31.2806H15.808C16.2568 31.2806 16.6204 30.917 16.6204 30.4682C16.6204 30.0195 16.2568 29.6558 15.8082 29.6558Z" fill="#2474B7"/>
<path d="M15.8082 32.8272H7.07415C6.62539 32.8272 6.26172 33.1909 6.26172 33.6396C6.26172 34.0884 6.62539 34.4521 7.07415 34.4521H15.808C16.2568 34.4521 16.6204 34.0884 16.6204 33.6396C16.6204 33.1909 16.2568 32.8272 15.8082 32.8272Z" fill="#2474B7"/>
<path d="M15.8082 35.9987H7.07415C6.62539 35.9987 6.26172 36.3624 6.26172 36.8112C6.26172 37.2599 6.62539 37.6236 7.07415 37.6236H15.808C16.2568 37.6236 16.6204 37.2599 16.6204 36.8112C16.6204 36.3624 16.2568 35.9987 15.8082 35.9987Z" fill="#2474B7"/>
<path d="M15.8082 39.1703H7.07415C6.62539 39.1703 6.26172 39.534 6.26172 39.9827C6.26172 40.4315 6.62539 40.7952 7.07415 40.7952H15.808C16.2568 40.7952 16.6204 40.4315 16.6204 39.9827C16.6204 39.534 16.2568 39.1703 15.8082 39.1703Z" fill="#2474B7"/>
<path d="M15.8082 42.3417H7.07415C6.62539 42.3417 6.26172 42.7054 6.26172 43.1542C6.26172 43.6029 6.62539 43.9666 7.07415 43.9666H15.808C16.2568 43.9666 16.6204 43.6029 16.6204 43.1542C16.6204 42.7054 16.2568 42.3417 15.8082 42.3417Z" fill="#2474B7"/>
<path d="M15.8082 45.5133H7.07415C6.62539 45.5133 6.26172 45.877 6.26172 46.3257C6.26172 46.7745 6.62539 47.1382 7.07415 47.1382H15.808C16.2568 47.1382 16.6204 46.7745 16.6204 46.3257C16.6204 45.877 16.2568 45.5133 15.8082 45.5133Z" fill="#2474B7"/>
<path d="M15.8082 48.6847H7.07415C6.62539 48.6847 6.26172 49.0484 6.26172 49.4972C6.26172 49.9459 6.62539 50.3096 7.07415 50.3096H15.808C16.2568 50.3096 16.6204 49.9459 16.6204 49.4972C16.6204 49.0484 16.2568 48.6847 15.8082 48.6847Z" fill="#2474B7"/>
<path d="M15.8082 51.8563H7.07415C6.62539 51.8563 6.26172 52.22 6.26172 52.6687C6.26172 53.1175 6.62539 53.4811 7.07415 53.4811H15.808C16.2568 53.4811 16.6204 53.1175 16.6204 52.6687C16.6204 52.22 16.2568 51.8563 15.8082 51.8563Z" fill="#2474B7"/>
<path d="M15.8082 55.0278H7.07415C6.62539 55.0278 6.26172 55.3915 6.26172 55.8403C6.26172 56.289 6.62539 56.6527 7.07415 56.6527H15.808C16.2568 56.6527 16.6204 56.289 16.6204 55.8403C16.6204 55.3915 16.2568 55.0278 15.8082 55.0278Z" fill="#2474B7"/>
<path d="M15.8082 58.1992H7.07415C6.62539 58.1992 6.26172 58.5629 6.26172 59.0117C6.26172 59.4605 6.62539 59.8241 7.07415 59.8241H15.808C16.2568 59.8241 16.6204 59.4605 16.6204 59.0117C16.6204 58.5629 16.2568 58.1992 15.8082 58.1992Z" fill="#2474B7"/>
<path d="M20.3437 5.90854H29.0775C29.5263 5.90854 29.89 5.54487 29.89 5.09612C29.89 4.64736 29.5263 4.28369 29.0775 4.28369H20.3437C19.8949 4.28369 19.5312 4.64736 19.5312 5.09612C19.5312 5.54487 19.8949 5.90854 20.3437 5.90854Z" fill="#2474B7"/>
<path d="M20.3437 9.08011H29.0775C29.5263 9.08011 29.89 8.71644 29.89 8.26769C29.89 7.81893 29.5263 7.45526 29.0775 7.45526H20.3437C19.8949 7.45526 19.5312 7.81893 19.5312 8.26769C19.5312 8.71644 19.8949 9.08011 20.3437 9.08011Z" fill="#2474B7"/>
<path d="M20.3437 34.4521H29.0775C29.5263 34.4521 29.89 34.0884 29.89 33.6396C29.89 33.1909 29.5263 32.8272 29.0775 32.8272H20.3437C19.8949 32.8272 19.5312 33.1909 19.5312 33.6396C19.5312 34.0884 19.8949 34.4521 20.3437 34.4521Z" fill="#2474B7"/>
<path d="M19.5312 36.8112V52.6687C19.5312 53.1174 19.8949 53.4811 20.3437 53.4811H42.3467C42.7955 53.4811 43.1591 53.1174 43.1591 52.6687V36.8112C43.1591 36.3624 42.7955 35.9987 42.3467 35.9987H20.3437C19.8949 35.9987 19.5312 36.3624 19.5312 36.8112ZM21.1561 37.6236H41.5343V51.8563H21.1561V37.6236Z" fill="#2474B7"/>
<path d="M29.0775 55.0278H20.3437C19.8949 55.0278 19.5312 55.3915 19.5312 55.8403C19.5312 56.289 19.8949 56.6527 20.3437 56.6527H29.0775C29.5263 56.6527 29.89 56.289 29.89 55.8403C29.89 55.3915 29.5263 55.0278 29.0775 55.0278Z" fill="#2474B7"/>
<path d="M29.0775 58.1992H20.3437C19.8949 58.1992 19.5312 58.5629 19.5312 59.0117C19.5312 59.4605 19.8949 59.8241 20.3437 59.8241H29.0775C29.5263 59.8241 29.89 59.4605 29.89 59.0117C29.89 58.5629 29.5263 58.1992 29.0775 58.1992Z" fill="#2474B7"/>
<path d="M33.6132 5.90854H42.3472C42.796 5.90854 43.1597 5.54487 43.1597 5.09612C43.1597 4.64736 42.796 4.28369 42.3472 4.28369H33.6132C33.1645 4.28369 32.8008 4.64736 32.8008 5.09612C32.8008 5.54487 33.1645 5.90854 33.6132 5.90854Z" fill="#2474B7"/>
<path d="M42.3472 55.0278H33.6132C33.1645 55.0278 32.8008 55.3915 32.8008 55.8403C32.8008 56.289 33.1645 56.6527 33.6132 56.6527H42.3472C42.796 56.6527 43.1597 56.289 43.1597 55.8403C43.1597 55.3915 42.7959 55.0278 42.3472 55.0278Z" fill="#2474B7"/>
<path d="M42.3472 58.1992H33.6132C33.1645 58.1992 32.8008 58.5629 32.8008 59.0117C32.8008 59.4605 33.1645 59.8241 33.6132 59.8241H42.3472C42.796 59.8241 43.1597 59.4605 43.1597 59.0117C43.1597 58.5629 42.7959 58.1992 42.3472 58.1992Z" fill="#2474B7"/>
</g>
<defs>
<clipPath id="clip0">
<rect width="64" height="64" fill="white"/>
</clipPath>
</defs>
</svg>

<svg width="64" height="64" fill="none" xmlns="http://www.w3.org/2000/svg"><g clip-path="url(#clip0)" fill="#2474B7"><path d="M32.744 13.061c-4.367 4.367-4.367 11.473 0 15.84a11.164 11.164 0 007.92 3.275c2.867 0 5.736-1.092 7.92-3.276 4.366-4.366 4.366-11.472 0-15.839-4.368-4.367-11.473-4.367-15.84 0zm14.69 14.69c-3.733 3.734-9.808 3.734-13.541 0-3.733-3.733-3.733-9.807 0-13.54a9.545 9.545 0 016.77-2.8c2.452 0 4.904.933 6.771 2.8 3.734 3.733 3.734 9.807 0 13.54z"/><path d="M33.382 23.308a.812.812 0 00.633-.959 6.847 6.847 0 01-.138-1.368.812.812 0 10-1.625 0c0 .57.057 1.14.17 1.694a.813.813 0 00.96.633zm7.28 4.459a6.795 6.795 0 01-5.94-3.502.812.812 0 10-1.42.788 8.42 8.42 0 007.36 4.339.812.812 0 100-1.625zm6.65-8.155c.091.448.137.908.137 1.369a.812.812 0 101.625 0c0-.57-.057-1.14-.17-1.694a.812.812 0 10-1.592.325zm-7.462-6.229c0 .449.363.812.812.812a6.744 6.744 0 015.8 3.263.812.812 0 101.389-.845 8.357 8.357 0 00-7.189-4.043.812.812 0 00-.812.813z"/><path d="M61.71 38.253l-9.26-9.26c3.772-5.545 3.205-13.179-1.708-18.091a14.406 14.406 0 00-2.175-1.789v-8.3A.812.812 0 0047.754 0H2.32a.812.812 0 00-.812.812v62.376c0 .448.363.812.812.812h45.434a.812.812 0 00.813-.812v-30.34l.112-.076 9.256 9.256c.52.52 1.203.78 1.887.78.683 0 1.367-.26 1.887-.78a2.652 2.652 0 00.782-1.888c0-.713-.277-1.383-.782-1.887zm-12.117-8.341a12.547 12.547 0 01-8.93 3.699 12.547 12.547 0 01-8.93-3.7 12.547 12.547 0 01-3.7-8.93c0-3.373 1.314-6.545 3.7-8.93a12.547 12.547 0 018.93-3.7c3.373 0 6.545 1.314 8.93 3.7 4.925 4.924 4.925 12.936 0 17.86zm-2.651 32.463H3.132V1.625h43.81v6.552a14.198 14.198 0 00-6.28-1.45c-1.56 0-3.081.249-4.52.728h-2.53a.812.812 0 00-.516 1.44 14.372 14.372 0 00-3.247 2.798.811.811 0 00-.771-1.066h-8.734a.812.812 0 100 1.624h8.734a.808.808 0 00.396-.103 14.198 14.198 0 00-1.13 1.65h-8a.812.812 0 100 1.625h7.185c-.213.504-.397 1.02-.55 1.546h-6.635a.812.812 0 100 1.625h6.263a14.366 14.366 0 00-.173 1.547h-6.09a.812.812 0 100 1.625h6.086c.028.521.085 1.037.168 1.546h-6.254a.812.812 0 100 1.625h6.619c.15.526.332 1.043.543 1.547h-7.162a.812.812 0 100 1.624h7.968c.325.56.687 1.1 1.09 1.615a.808.808 0 00-.324-.067h-8.734a.812.812 0 100 1.625h8.734a.812.812 0 00.793-.986 14.53 14.53 0 003.19 2.75.812.812 0 00.551 1.408h2.373c1.485.514 3.06.782 4.678.782 2.213 0 4.349-.502 6.279-1.45v28.59zM60.56 40.88a1.045 1.045 0 01-1.476 0l-9.107-9.107a14.23 14.23 0 001.474-1.48l9.11 9.11c.197.197.305.46.305.738 0 .279-.108.541-.306.739z"/><path d="M15.808 4.284H7.074a.812.812 0 00-.812.812v12.686c0 .449.363.813.812.813h8.734a.812.812 0 00.812-.813V5.096a.812.812 0 00-.812-.812zm-.812 12.686h-7.11V5.909h7.11v11.06zm.812 3.171H7.074a.812.812 0 100 1.625h8.734a.812.812 0 000-1.625zm0 3.172H7.074a.812.812 0 100 1.625h8.734a.812.812 0 000-1.625zm0 3.171H7.074a.812.812 0 100 1.625h8.734a.812.812 0 000-1.625zm0 3.172H7.074a.812.812 0 100 1.625h8.734a.812.812 0 100-1.625zm0 3.171H7.074a.812.812 0 100 1.625h8.734a.812.812 0 000-1.625zm0 3.172H7.074a.812.812 0 100 1.625h8.734a.812.812 0 000-1.625zm0 3.171H7.074a.812.812 0 100 1.625h8.734a.812.812 0 000-1.625zm0 3.172H7.074a.812.812 0 100 1.625h8.734a.812.812 0 000-1.625zm0 3.171H7.074a.812.812 0 100 1.625h8.734a.812.812 0 000-1.625zm0 3.172H7.074a.812.812 0 100 1.625h8.734a.812.812 0 000-1.625zm0 3.171H7.074a.812.812 0 100 1.625h8.734a.812.812 0 100-1.625zm0 3.172H7.074a.812.812 0 100 1.625h8.734a.812.812 0 000-1.625zm0 3.172H7.074a.812.812 0 100 1.624h8.734a.812.812 0 100-1.625zm4.536-52.291h8.733a.812.812 0 100-1.625h-8.733a.812.812 0 100 1.625zm0 3.171h8.733a.812.812 0 100-1.625h-8.733a.812.812 0 100 1.625zm0 25.372h8.733a.812.812 0 100-1.625h-8.733a.812.812 0 100 1.625zm-.813 2.359V52.67c0 .448.364.812.813.812h22.003a.812.812 0 00.812-.812V36.81a.812.812 0 00-.812-.812H20.344a.812.812 0 00-.813.812zm1.625.813h20.378v14.232H21.156V37.624zm7.922 17.404h-8.734a.812.812 0 100 1.625h8.733a.812.812 0 100-1.625zm0 3.172h-8.734a.812.812 0 100 1.624h8.733a.812.812 0 100-1.625zm4.535-52.291h8.734a.812.812 0 100-1.625h-8.734a.812.812 0 100 1.625zm8.734 49.119h-8.734a.812.812 0 100 1.625h8.734a.812.812 0 100-1.625zm0 3.172h-8.734a.812.812 0 100 1.624h8.734a.812.812 0 100-1.625z"/></g><defs><clipPath id="clip0"><path fill="#fff" d="M0 0h64v64H0z"/></clipPath></defs></svg>
